packages/foundations/assets/icons/functional/images/date & time/calendar_32.svg

<svg width="32" height="32" viewBox="0 0 32 32" fill="none" xmlns="http://www.w3.org/2000/svg">
<g clip-path="url(#clip0_185_655)">
<path fill-rule="evenodd" clip-rule="evenodd" d="M20 5C20.5625 5 21 5.4375 21 5.9688V7H24C25.6562 7 27 8.3438 27 10V24C27 25.6562 25.6562 27 24 27H8C6.3438 27 5 25.6562 5 24V10C5 8.3438 6.3438 7 8 7H11V5.9688C11 5.4375 11.4375 5 12 5C12.5625 5 13 5.4375 13 5.9688V7H19V5.9688C19 5.4375 19.4375 5 20 5ZM25 15H7V24C7 24.5625 7.4375 25 8 25H24C24.5625 25 25 24.5625 25 24V15ZM11 9H8C7.4375 9 7 9.4375 7 10V13H25V10C25 9.4375 24.5625 9 24 9H21V10.0312C21 10.5625 20.5625 11 20 11C19.4375 11 19 10.5625 19 10.0312V9H13V10.0312C13 10.5625 12.5625 11 12 11C11.4375 11 11 10.5625 11 10.0312V9ZM9 22C9 21.4375 9.4375 21 10 21C10.5625 21 11 21.4375 11 22C11 22.5625 10.5625 23 10 23C9.4375 23 9 22.5625 9 22ZM9 18C9 17.4375 9.4375 17 10 17C10.5625 17 11 17.4375 11 18C11 18.5625 10.5625 19 10 19C9.4375 19 9 18.5625 9 18ZM13 22C13 21.4375 13.4375 21 14 21C14.5625 21 15 21.4375 15 22C15 22.5625 14.5625 23 14 23C13.4375 23 13 22.5625 13 22ZM13 18C13 17.4375 13.4375 17 14 17C14.5625 17 15 17.4375 15 18C15 18.5625 14.5625 19 14 19C13.4375 19 13 18.5625 13 18ZM17 22C17 21.4375 17.4375 21 18 21C18.5625 21 19 21.4375 19 22C19 22.5625 18.5625 23 18 23C17.4375 23 17 22.5625 17 22ZM17 18C17 17.4375 17.4375 17 18 17C18.5625 17 19 17.4375 19 18C19 18.5625 18.5625 19 18 19C17.4375 19 17 18.5625 17 18ZM21 22C21 21.4375 21.4375 21 22 21C22.5625 21 23 21.4375 23 22C23 22.5625 22.5625 23 22 23C21.4375 23 21 22.5625 21 22ZM21 18C21 17.4375 21.4375 17 22 17C22.5625 17 23 17.4375 23 18C23 18.5625 22.5625 19 22 19C21.4375 19 21 18.5625 21 18Z" fill="#1A1C1F"/>
</g>
<defs>
<clipPath id="clip0_185_655">
<rect width="32" height="32" fill="white"/>
</clipPath>
</defs>
</svg>

<svg xmlns="http://www.w3.org/2000/svg" width="32" height="32" fill="none"><g clip-path="url(#a)"><path fill="#1A1C1F" fill-rule="evenodd" d="M20 5a.98.98 0 0 1 1 .969V7h3a3 3 0 0 1 3 3v14a3 3 0 0 1-3 3H8a3 3 0 0 1-3-3V10a3 3 0 0 1 3-3h3V5.969A.98.98 0 0 1 12 5a.98.98 0 0 1 1 .969V7h6V5.969A.98.98 0 0 1 20 5m5 10H7v9c0 .563.438 1 1 1h16c.563 0 1-.437 1-1zM11 9H8c-.562 0-1 .438-1 1v3h18v-3c0-.562-.437-1-1-1h-3v1.031A.98.98 0 0 1 20 11a.98.98 0 0 1-1-.969V9h-6v1.031A.98.98 0 0 1 12 11a.98.98 0 0 1-1-.969zM9 22c0-.562.438-1 1-1s1 .438 1 1-.437 1-1 1-1-.437-1-1m0-4c0-.562.438-1 1-1s1 .438 1 1-.437 1-1 1-1-.437-1-1m4 4c0-.562.438-1 1-1s1 .438 1 1-.437 1-1 1-1-.437-1-1m0-4c0-.562.438-1 1-1s1 .438 1 1-.437 1-1 1-1-.437-1-1m4 4c0-.562.438-1 1-1s1 .438 1 1-.437 1-1 1-1-.437-1-1m0-4c0-.562.438-1 1-1s1 .438 1 1-.437 1-1 1-1-.437-1-1m4 4c0-.562.438-1 1-1s1 .438 1 1-.437 1-1 1-1-.437-1-1m0-4c0-.562.438-1 1-1s1 .438 1 1-.437 1-1 1-1-.437-1-1" clip-rule="evenodd"/></g><defs><clipPath id="a"><path fill="#fff" d="M0 0h32v32H0z"/></clipPath></defs></svg>
